X:1
T:O God, my gracious God, to thee
T:O God, my gracious God, to thee (Bennett Mintern Swaffield)
C:Bennett Mintern Swaffield
Z:Text: Tate/Brady, on Ps. 63
%%score [ 1 ( 2 3 ) 4 ( 5 6 ) ]
L:1/8
M:3/2
K:Cmin
V:1 treble nm="SOPRANO" snm="S."
V:2 treble nm="ALTO" snm="A."
V:3 treble 
V:4 treble-8 transpose=-12 nm="TENOR" snm="T."
V:5 bass nm="BASS" snm="B."
V:6 bass 
V:1
 G4 | (e4 d4) c4 | =B8 (G2 F2) | E8 D4 | C8 (E2 F2) | G8 (F2 G2) | (A4 G4) G4 | (G4 F4) E4 | %8
w: When|down _ I|lie, sweet _|sleep to|find, Thou, _|Lord, art _|pre- * sent|to _ my|
w: O|God, _ my|gra- cious _|God, to|thee My _|mor- ning _|pray’rs _ shall|of- * fer’d|
w: O!|to _ my|lon- ging _|eyes once|more That _|view of _|glo- * rious|pow’r _ re-|
 (E4 D4) =B4 | c8 d4 | e8 d4 | c8 T=B4 | c8 (B2 A2) | G8 B4 | c8 e4 | d8 c4 | B8 B4 | (B4 G4) A4 | %18
w: mind, _ thou,|Lord, art|pre- sent|to my|mind, And _|when I|wake in|dead of|night: Be-|cause _ thou|
w: be, _ my|mor- ning|pray’rs shall|of- fer’d|be; For _|thee my|thir- sty|soul does|pant: My|fain- * ting|
w: store, _ that|view of|glo- rious|pow’r re-|store, Which _|thy ma-|jes- tic|house dis-|plays: Be-|cause _ to|
 B8 G4 | (E2 A2 G4) TF4 | E8 (G2 A2) | B8 =B4 | c8 d4 | (e2 d2 c4) (d2 c2) | (c4 =B4) G4 | %25
w: still dost|suc- * * cour|bring, Be- *|neath the|sha- dow|of _ _ thy _|wing, _ I|
w: flesh im-|plores _ _ thy|grace, With- *|in this|dry and|bar- * * ren _|place, _ Where|
w: me thy|won- * * drous|love, Than _|life it-|self does|dea- * * rer _|prove, _ My|
 G8 (G2 c2) | =B8 (G2 F2) | E8 D4 | C8 |] %29
w: rest with _|safe- ty _|and de-|light.|
w: I re- *|fresh- ing _|wa- ters|want.|
w: lips shall _|al- ways _|speak thy|praise.|
V:2
 E4 | G8 (G2 E2) | F8 (E2 D2) | C8 =B,4 | C8 (C2 D2) | E8 (D2 E2) | (F4 E4) E4 | (E4 D4) C4 | %8
w: When|down I _|lie, sweet _|sleep to|find, Thou, _|Lord, art _|pre- * sent|to _ my|
w: O|God, my _|gra- cious _|God, to|thee My _|mor- ning _|pray’rs _ shall|of- * fer’d|
w: O!|to my _|lon- ging _|eyes once|more That _|view of _|glo- * rious|pow’r _ re-|
 (C4 =B,4) G4 | G8 G4 | G8 A4 | G8 G4 | G8 F4 | E8 G4 | A8 =A4 | (B4 G4) =A4 | B8 A4 | (G4 E4) A4 | %18
w: mind, _ thou,|Lord, art|pre- sent|to my|mind, And|when I|wake in|dead _ of|night: Be-|cause _ thou|
w: be, _ my|mor- ning|pray’rs shall|of- fer’d|be; For|thee my|thir- sty|soul _ does|pant: My|fain- * ting|
w: store, _ that|view of|glo- rious|pow’r re-|store, Which|thy ma-|jes- tic|house _ dis-|plays: Be-|cause _ to|
 G8 E4 | E8 D4 | E8 E4 | E8 F4 | E8 G4 | (G4 A4) A4 | G8 D4 | E8 G4 | F8 (E2 D2) | C8 =B,4 | C8 |] %29
w: still dost|suc- cour|bring, Be-|neath the|sha- dow|of _ thy|wing, I|rest with|safe- ty _|and de-|light.|
w: flesh im-|plores thy|grace, With-|in this|dry and|bar- * ren|place, Where|I re-|fresh- ing _|wa- ters|want.|
w: me thy|won- drous|love, Than|life it-|self does|dea- * rer|prove, My|lips shall|al- ways _|speak thy|praise.|
V:3
 x4 | x12 | x12 | x12 | x12 | x12 | x12 | x12 | x12 | x12 | x12 | x12 | E8 x4 | x12 | x12 | x12 | %16
 x12 | x12 | x12 | x12 | x8 x4 | x12 | x12 | x12 | x12 | x12 | x12 | x12 | x8 |] %29
V:4
 c4 | (c4 d4) e4 | d8 c4 | (c4 G4) G4 | G8 z4 | z12 | z12 | z12 | z8 d4 | c8 =B4 | (c4 e4) f4 | %11
w: When|down _ I|lie, sweet|sleep _ to|find,||||Thou,|Lord, art|pre- * sent|
w: O|God, _ my|gra- cious|God, _ to|thee||||My|mor- ning|pray’rs _ shall|
w: O!|to _ my|lon- ging|eyes _ once|more||||That|view of|glo- * rious|
 e8 d4 | c8 B4 | B8 e4 | c8 c4 | (d4 e4) e4 | d8 d4 | e8 d4 | e8 B4 | (c4 B4) (B2 A2) | %20
w: to my|mind, And|when I|wake in|dead _ of|night: Be-|cause thou|still dost|suc- * cour _|
w: of- fer’d|be; For|thee my|thir- sty|soul _ does|pant: My|fain- ting|flesh im-|plores _ thy _|
w: pow’r re-|store, Which|thy ma-|jes- tic|house _ dis-|plays: Be-|cause to|me thy|won- * drous _|
 G8 (B2 A2) | G8 G4 | G8 =B4 | (c2 d2 e4) (f2 e2) | (e4 d4) =B4 | c8 e4 | d8 c4 | (c4 G4) G4 | %28
w: bring, Be- *|neath the|sha- dow|of _ _ thy _|wing, _ I|rest with|safe- ty|and _ de-|
w: grace, With- *|in this|dry and|bar- * * ren _|place, _ Where|I re-|fresh- ing|wa- * ters|
w: love, Than _|life it-|self does|dea- * * rer _|prove, _ My|lips shall|al- ways|speak _ thy|
 G8 |] %29
w: light.|
w: want.|
w: praise.|
V:5
 C,4 | (C,4 =B,,4) C,4 | D,8 (E,2 F,2) | G,8 G,,4 | C,8 z4 | C,8 z4 | C,8 C,4 | C,4 F,4 ^F,4 | %8
w: When|down _ I|lie, sweet _|sleep to|find,||||
w: O|God, _ my|gra- cious _|God, to|thee||||
w: O!|to _ my|lon- ging _|eyes once|more||||
"^Notes: The source includes a fully written out keyboard accompaniment, which largely doubles the voice parts and hasbeen omitted from this edition except for the small notes given here on the voice staves: if instruments are used toaccompany the piece, these notes should be played. Part allocations are identified in the first piece in the source asSoprano - Alto - Tenore - Basso - Organo: the order of parts is as given here. The Alto part is printed in the source inthe treble clef an octave above sounding pitch. The text of the first verse only is underlaid in the source, where theother two verses given here are printed after the music: these have been underlaid editorially." G,8 (G,2 F,2) | %9
w: * Thou, _|
w: * My _|
w: * That _|
 E,8 G,4 | C8 F,4 | G,8 G,,4 | C,8 D,4 | E,8 E,4 | A,8 F,4 | (B,4 E,4) F,4 | B,,8 B,,4 | E,8 F,4 | %18
w: Lord, art|pre- sent|to my|mind, And|when I|wake in|dead _ of|night: Be-|cause thou|
w: mor- ning|pray’rs shall|of- fer’d|be; For|thee my|thir- sty|soul _ does|pant: My|fain- ting|
w: view of|glo- rious|pow’r re-|store, Which|thy ma-|jes- tic|house _ dis-|plays: Be-|cause to|
 E,8 E,4 | (A,,4 B,,4) B,,4 | E,8 E,4 | E,8 D,4 | C,8 G,4 | (C2 B,2 A,4) (F,2 ^F,2) | %24
w: still dost|suc- * cour|bring, Be-|neath the|sha- dow|of _ _ thy _|
w: flesh im-|plores _ thy|grace, With-|in this|dry and|bar- * * ren _|
w: me thy|won- * drous|love, Than|life it-|self does|dea- * * rer _|
 G,8 (G,2 F,2) | E,8 C,4 | D,8 (E,2 F,2) | G,8 G,,4 | C,8 |] %29
w: wing, I _|rest with|safe- ty _|and de-|light.|
w: place, Where _|I re-|fresh- ing _|wa- ters|want.|
w: prove, My _|lips shall|al- ways _|speak thy|praise.|
V:6
 x4 | x12 | x12 | x12 | x12 | x12 | x12 | x12 | x12 | x12 | x12 | x12 | x12 | x12 | x12 | x12 | %16
 x12 | x12 | x12 | x12 | E,,8 x4 | x12 | x12 | x12 | x12 | x12 | x12 | x12 | x8 |] %29

